src/public/svg/01d.svg

<svg xmlns="http://www.w3.org/2000/svg" style="isolation:isolate" width="512" height="512"><path d="M256 379.586c68.414 0 123.586-55.614 123.586-123.586 0-67.972-55.614-123.586-123.586-123.586-67.972 0-123.586 55.614-123.586 123.586 0 67.972 55.172 123.586 123.586 123.586zm0-211.42c48.552 0 87.834 39.282 87.834 87.834 0 48.552-39.282 87.834-87.834 87.834-48.552 0-87.834-39.282-87.834-87.834 0-48.552 39.282-87.834 87.834-87.834zM274.097 75.034V18.097C274.097 7.945 266.152 0 256 0c-10.152 0-18.097 7.945-18.097 18.097v56.937c0 10.152 7.945 18.097 18.097 18.097 10.152 0 18.097-7.945 18.097-18.097zM237.903 436.966v56.937c0 10.152 7.945 18.097 18.097 18.097 10.152 0 18.097-7.945 18.097-18.097v-56.937c0-10.152-7.945-18.097-18.097-18.097-10.152 0-18.097 7.945-18.097 18.097zM396.8 140.8l40.166-40.166c7.062-7.062 7.062-18.537 0-25.6-7.063-7.062-18.538-7.062-25.6 0L371.2 115.2c-7.062 7.062-7.062 18.538 0 25.6 3.531 3.531 7.945 5.297 12.8 5.297s9.269-1.766 12.8-5.297zM75.034 436.966c3.532 3.531 7.945 5.296 12.8 5.296 4.414 0 9.269-1.765 12.8-5.296L140.8 396.8c7.062-7.062 7.062-18.538 0-25.6-7.062-7.062-18.538-7.062-25.6 0l-40.166 40.166c-7.062 7.062-7.062 18.537 0 25.6zM512 256c0-10.152-7.945-18.097-18.097-18.097h-56.937c-10.152 0-18.097 7.945-18.097 18.097 0 10.152 7.945 18.097 18.097 18.097h56.937c9.711 0 18.097-7.945 18.097-18.097zM18.097 274.097h56.937c10.152 0 18.097-7.945 18.097-18.097 0-10.152-7.945-18.097-18.097-18.097H18.097C7.945 237.903 0 245.848 0 256c0 10.152 8.386 18.097 18.097 18.097zM424.166 442.262c4.413 0 9.268-1.765 12.8-5.296 7.062-7.063 7.062-18.538 0-25.6L396.8 371.2c-7.062-7.062-18.538-7.062-25.6 0-7.062 7.062-7.062 18.538 0 25.6l40.166 40.166c3.531 3.531 8.386 5.296 12.8 5.296zM140.8 140.8c7.062-7.062 7.062-18.538 0-25.6l-40.166-40.166c-7.062-7.062-18.537-7.062-25.6 0-7.062 7.063-7.062 18.538 0 25.6L115.2 140.8c3.531 3.531 7.945 5.297 12.8 5.297s9.269-1.766 12.8-5.297z" fill="white"/></svg>

<?xml version="1.0" standalone="no"?><!-- Generator: Gravit.io --><svg xmlns="http://www.w3.org/2000/svg" xmlns:xlink="http://www.w3.org/1999/xlink" style="isolation:isolate" viewBox="0 0 512 512" width="512" height="512"><g id="null"><path d=" M 256 379.586 C 324.414 379.586 379.586 323.972 379.586 256 C 379.586 188.028 323.972 132.414 256 132.414 C 188.028 132.414 132.414 188.028 132.414 256 C 132.414 323.972 187.586 379.586 256 379.586 Z  M 256 168.166 C 304.552 168.166 343.834 207.448 343.834 256 C 343.834 304.552 304.552 343.834 256 343.834 C 207.448 343.834 168.166 304.552 168.166 256 C 168.166 207.448 207.448 168.166 256 168.166 Z " fill="rgb(0,0,0)"/><path d=" M 274.097 75.034 L 274.097 18.097 C 274.097 7.945 266.152 0 256 0 C 245.848 0 237.903 7.945 237.903 18.097 L 237.903 75.034 C 237.903 85.186 245.848 93.131 256 93.131 C 266.152 93.131 274.097 85.186 274.097 75.034 Z " fill="rgb(0,0,0)"/><path d=" M 237.903 436.966 L 237.903 493.903 C 237.903 504.055 245.848 512 256 512 C 266.152 512 274.097 504.055 274.097 493.903 L 274.097 436.966 C 274.097 426.814 266.152 418.869 256 418.869 C 245.848 418.869 237.903 426.814 237.903 436.966 Z " fill="rgb(0,0,0)"/><path d=" M 396.8 140.8 L 436.966 100.634 C 444.028 93.572 444.028 82.097 436.966 75.034 C 429.903 67.972 418.428 67.972 411.366 75.034 L 371.2 115.2 C 364.138 122.262 364.138 133.738 371.2 140.8 C 374.731 144.331 379.145 146.097 384 146.097 C 388.855 146.097 393.269 144.331 396.8 140.8 L 396.8 140.8 Z " fill="rgb(0,0,0)"/><path d=" M 75.034 436.966 C 78.566 440.497 82.979 442.262 87.834 442.262 C 92.248 442.262 97.103 440.497 100.634 436.966 L 140.8 396.8 C 147.862 389.738 147.862 378.262 140.8 371.2 C 133.738 364.138 122.262 364.138 115.2 371.2 L 75.034 411.366 C 67.972 418.428 67.972 429.903 75.034 436.966 Z " fill="rgb(0,0,0)"/><path d=" M 512 256 C 512 245.848 504.055 237.903 493.903 237.903 L 436.966 237.903 C 426.814 237.903 418.869 245.848 418.869 256 C 418.869 266.152 426.814 274.097 436.966 274.097 L 493.903 274.097 C 503.614 274.097 512 266.152 512 256 Z " fill="rgb(0,0,0)"/><path d=" M 18.097 274.097 L 75.034 274.097 C 85.186 274.097 93.131 266.152 93.131 256 C 93.131 245.848 85.186 237.903 75.034 237.903 L 18.097 237.903 C 7.945 237.903 0 245.848 0 256 C 0 266.152 8.386 274.097 18.097 274.097 Z " fill="rgb(0,0,0)"/><path d=" M 424.166 442.262 C 428.579 442.262 433.434 440.497 436.966 436.966 C 444.028 429.903 444.028 418.428 436.966 411.366 L 396.8 371.2 C 389.738 364.138 378.262 364.138 371.2 371.2 C 364.138 378.262 364.138 389.738 371.2 396.8 L 411.366 436.966 C 414.897 440.497 419.752 442.262 424.166 442.262 L 424.166 442.262 Z " fill="rgb(0,0,0)"/><path d=" M 140.8 140.8 C 147.862 133.738 147.862 122.262 140.8 115.2 L 100.634 75.034 C 93.572 67.972 82.097 67.972 75.034 75.034 C 67.972 82.097 67.972 93.572 75.034 100.634 L 115.2 140.8 C 118.731 144.331 123.145 146.097 128 146.097 C 132.855 146.097 137.269 144.331 140.8 140.8 Z " fill="rgb(0,0,0)"/></g></svg>
